swiss/communes/5557.svg

<?xml version="1.0" encoding="UTF-8"?>
<svg width="600" height="747" xmlns="http://www.w3.org/2000/svg">
 <path d="M594.5 242.25c0 272.9-100.51 424.54-294.49 498.66C107.03 666.508 5.51 515.15 5.51 242.25V5.69H594.5z" fill="#1c63b7"/>
 <g stroke="#000">
  <path d="M93.117 216.32c-.07 1.272-.19 2.515-.19 3.828 0 9.678 2.036 18.114 4.073 26.578 2.036 8.45 4.072 16.901 4.072 26.578 0 9.678-2.036 18.116-4.072 26.58-2.037 8.45-4.072 16.901-4.072 26.578S94.963 344.576 97 353.04c2.036 8.45 4.072 16.928 4.072 26.578 0 9.677-2.036 18.116-4.072 26.58-2.037 8.45-4.072 16.928-4.072 26.578 0 9.677 2.035 18.127 4.072 26.578 2.036 8.45 4.072 16.93 4.072 26.58 0 9.677-2.036 18.114-4.072 26.578-2.037 8.45-4.072 16.928-4.072 26.578 0 9.677 2.035 18.114 4.072 26.578 2.036 8.45 4.072 16.903 4.072 26.58 0 1.345-.122 2.616-.195 3.916 21.219 28.52 45.93 53.532 74.025 75.377-2-8.318-3.975-16.627-3.975-26.137 0-9.677 2.036-18.127 4.073-26.578 2.036-8.464 4.072-16.9 4.072-26.578s-2.036-18.129-4.072-26.58c-2.037-8.464-4.073-16.9-4.073-26.578 0-9.65 2.036-18.127 4.073-26.578 2.036-8.464 4.072-16.9 4.072-26.578 0-9.65-2.036-18.129-4.072-26.58-2.037-8.45-4.073-16.9-4.073-26.578 0-9.65 2.036-18.127 4.073-26.578 2.036-8.464 4.072-16.903 4.072-26.58 0-9.65-2.036-18.127-4.072-26.578-2.037-8.464-4.073-16.9-4.073-26.578 0-9.677 2.036-18.127 4.073-26.578 2.036-8.464 4.072-16.903 4.072-26.58s-2.036-18.127-4.072-26.578c-2.037-8.464-4.073-16.9-4.073-26.578 0-1.313.12-2.556.19-3.828h-78zm164 0c-.07 1.272-.19 2.515-.19 3.828 0 9.678 2.036 18.114 4.073 26.578 2.036 8.45 4.072 16.901 4.072 26.578 0 9.678-2.036 18.116-4.072 26.58-2.037 8.45-4.072 16.901-4.072 26.578s2.035 18.114 4.072 26.578c2.036 8.45 4.072 16.928 4.072 26.578 0 9.677-2.036 18.116-4.072 26.58-2.037 8.45-4.072 16.928-4.072 26.578 0 9.677 2.035 18.127 4.072 26.578 2.036 8.45 4.072 16.93 4.072 26.58 0 9.677-2.036 18.114-4.072 26.578-2.037 8.45-4.072 16.928-4.072 26.578 0 9.677 2.035 18.114 4.072 26.578 2.036 8.45 4.072 16.903 4.072 26.58s-2.036 18.114-4.072 26.578c-2.037 8.45-4.072 16.901-4.072 26.578s2.035 18.116 4.072 26.58c2.036 8.45 4.072 16.901 4.072 26.578 0 9.275-1.891 17.398-3.84 25.51a570.093 570.093 0 0 0 38.777 16.643 567.761 567.761 0 0 0 39.242-16.732c1.94-8.082 3.82-16.179 3.82-25.42 0-9.677-2.035-18.127-4.072-26.578-2.036-8.464-4.072-16.903-4.072-26.58s2.036-18.127 4.072-26.578c2.037-8.464 4.073-16.9 4.073-26.578s-2.036-18.129-4.073-26.58c-2.036-8.464-4.072-16.9-4.072-26.578 0-9.65 2.036-18.127 4.072-26.578 2.037-8.464 4.073-16.9 4.073-26.578 0-9.65-2.036-18.129-4.073-26.58-2.036-8.45-4.072-16.9-4.072-26.578 0-9.65 2.036-18.127 4.072-26.578 2.037-8.464 4.073-16.903 4.073-26.58 0-9.65-2.036-18.127-4.073-26.578-2.036-8.464-4.072-16.9-4.072-26.578 0-9.677 2.036-18.127 4.072-26.578 2.037-8.464 4.073-16.903 4.073-26.58s-2.036-18.127-4.073-26.578c-2.036-8.464-4.072-16.9-4.072-26.578 0-1.313.12-2.556.19-3.828h-78zm164 0c-.07 1.272-.19 2.515-.19 3.828 0 9.678 2.036 18.114 4.073 26.578 2.036 8.45 4.072 16.901 4.072 26.578 0 9.678-2.036 18.116-4.072 26.58-2.037 8.45-4.072 16.901-4.072 26.578s2.035 18.114 4.072 26.578c2.036 8.45 4.072 16.928 4.072 26.578 0 9.677-2.036 18.116-4.072 26.58-2.037 8.45-4.072 16.928-4.072 26.578 0 9.677 2.035 18.127 4.072 26.578 2.036 8.45 4.072 16.93 4.072 26.58 0 9.677-2.036 18.114-4.072 26.578-2.037 8.45-4.072 16.928-4.072 26.578 0 9.677 2.035 18.114 4.072 26.578 2.036 8.45 4.072 16.903 4.072 26.58s-2.036 18.114-4.072 26.578c-2.037 8.45-4.072 16.901-4.072 26.578s2.035 18.116 4.072 26.58c.005.022.008.045.014.067 31.628-24.466 58.887-52.983 81.754-85.928-.618-7.203-2.174-13.841-3.768-20.455-2.037-8.465-4.072-16.901-4.072-26.578 0-9.65 2.035-18.127 4.072-26.578 2.036-8.465 4.072-16.901 4.072-26.578 0-9.65-2.036-18.13-4.072-26.58-2.037-8.451-4.072-16.901-4.072-26.578 0-9.65 2.035-18.127 4.072-26.578 2.036-8.465 4.072-16.903 4.072-26.58 0-9.65-2.036-18.127-4.072-26.578-2.037-8.465-4.072-16.901-4.072-26.578 0-9.678 2.035-18.127 4.072-26.578 2.036-8.465 4.072-16.903 4.072-26.58 0-9.678-2.036-18.127-4.072-26.578-2.037-8.465-4.072-16.901-4.072-26.578 0-1.313.119-2.556.19-3.829h-78z" fill="#fff" stroke-width="5.5"/>
 </g>
 <path d="M2 3.34h596v230.65H2z" fill="#fcdb00"/>
 <g fill="none" stroke="#000" stroke-width="5.5">
  <path d="M2 63.987h596M2 120.65h596M2 177.32h596M2 233.99h596"/>
 </g>
 <g fill="none" stroke="#000">
  <g stroke-width="5.5">
   <path d="m422 9.02v55.557m-120.54-58.971v57.322m-178.09 116.09v55.557m298.63-113.56v55.557m-237.69-53.867v53.926m356.68-174.78v61.291m-56.99 0.624v57.557m-123.14 57.101v56.155m-300.86-111.22v54.747m185.74-113.84v56.916m0 55.925v54.799m115.12-165.38v53.129m-59.4 1.818v55.557m182.54 1.5129v56.196m56.99-112.9v55.292m-417.62-112.13v55.557m-63.37-114.19v57.722m124.42-58.129-0.103 59.078" />
  </g>
  <path d="M594.5 242.25c0 272.9-100.51 424.54-294.49 498.66C107.03 666.508 5.51 515.15 5.51 242.25V5.69H594.5z" stroke-width="11"/>
 </g>
</svg>

<svg width="600" height="747" xmlns="http://www.w3.org/2000/svg"><path d="M594.5 242.25c0 272.9-100.51 424.54-294.49 498.66C107.03 666.508 5.51 515.15 5.51 242.25V5.69H594.5z" fill="#1c63b7"/><path d="M93.117 216.32c-.07 1.272-.19 2.515-.19 3.828 0 9.678 2.036 18.114 4.073 26.578 2.036 8.45 4.072 16.901 4.072 26.578 0 9.678-2.036 18.116-4.072 26.58-2.037 8.45-4.072 16.901-4.072 26.578S94.963 344.576 97 353.04c2.036 8.45 4.072 16.928 4.072 26.578 0 9.677-2.036 18.116-4.072 26.58-2.037 8.45-4.072 16.928-4.072 26.578 0 9.677 2.035 18.127 4.072 26.578 2.036 8.45 4.072 16.93 4.072 26.58 0 9.677-2.036 18.114-4.072 26.578-2.037 8.45-4.072 16.928-4.072 26.578 0 9.677 2.035 18.114 4.072 26.578 2.036 8.45 4.072 16.903 4.072 26.58 0 1.345-.122 2.616-.195 3.916 21.219 28.52 45.93 53.532 74.025 75.377-2-8.318-3.975-16.627-3.975-26.137 0-9.677 2.036-18.127 4.073-26.578 2.036-8.464 4.072-16.9 4.072-26.578s-2.036-18.129-4.072-26.58c-2.037-8.464-4.073-16.9-4.073-26.578 0-9.65 2.036-18.127 4.073-26.578 2.036-8.464 4.072-16.9 4.072-26.578 0-9.65-2.036-18.129-4.072-26.58-2.037-8.45-4.073-16.9-4.073-26.578 0-9.65 2.036-18.127 4.073-26.578 2.036-8.464 4.072-16.903 4.072-26.58 0-9.65-2.036-18.127-4.072-26.578-2.037-8.464-4.073-16.9-4.073-26.578 0-9.677 2.036-18.127 4.073-26.578 2.036-8.464 4.072-16.903 4.072-26.58s-2.036-18.127-4.072-26.578c-2.037-8.464-4.073-16.9-4.073-26.578 0-1.313.12-2.556.19-3.828h-78zm164 0c-.07 1.272-.19 2.515-.19 3.828 0 9.678 2.036 18.114 4.073 26.578 2.036 8.45 4.072 16.901 4.072 26.578 0 9.678-2.036 18.116-4.072 26.58-2.037 8.45-4.072 16.901-4.072 26.578s2.035 18.114 4.072 26.578c2.036 8.45 4.072 16.928 4.072 26.578 0 9.677-2.036 18.116-4.072 26.58-2.037 8.45-4.072 16.928-4.072 26.578 0 9.677 2.035 18.127 4.072 26.578 2.036 8.45 4.072 16.93 4.072 26.58 0 9.677-2.036 18.114-4.072 26.578-2.037 8.45-4.072 16.928-4.072 26.578 0 9.677 2.035 18.114 4.072 26.578 2.036 8.45 4.072 16.903 4.072 26.58s-2.036 18.114-4.072 26.578c-2.037 8.45-4.072 16.901-4.072 26.578s2.035 18.116 4.072 26.58c2.036 8.45 4.072 16.901 4.072 26.578 0 9.275-1.891 17.398-3.84 25.51a570.093 570.093 0 0 0 38.777 16.643 567.761 567.761 0 0 0 39.242-16.732c1.94-8.082 3.82-16.179 3.82-25.42 0-9.677-2.035-18.127-4.072-26.578-2.036-8.464-4.072-16.903-4.072-26.58s2.036-18.127 4.072-26.578c2.037-8.464 4.073-16.9 4.073-26.578s-2.036-18.129-4.073-26.58c-2.036-8.464-4.072-16.9-4.072-26.578 0-9.65 2.036-18.127 4.072-26.578 2.037-8.464 4.073-16.9 4.073-26.578 0-9.65-2.036-18.129-4.073-26.58-2.036-8.45-4.072-16.9-4.072-26.578 0-9.65 2.036-18.127 4.072-26.578 2.037-8.464 4.073-16.903 4.073-26.58 0-9.65-2.036-18.127-4.073-26.578-2.036-8.464-4.072-16.9-4.072-26.578 0-9.677 2.036-18.127 4.072-26.578 2.037-8.464 4.073-16.903 4.073-26.58s-2.036-18.127-4.073-26.578c-2.036-8.464-4.072-16.9-4.072-26.578 0-1.313.12-2.556.19-3.828h-78zm164 0c-.07 1.272-.19 2.515-.19 3.828 0 9.678 2.036 18.114 4.073 26.578 2.036 8.45 4.072 16.901 4.072 26.578 0 9.678-2.036 18.116-4.072 26.58-2.037 8.45-4.072 16.901-4.072 26.578s2.035 18.114 4.072 26.578c2.036 8.45 4.072 16.928 4.072 26.578 0 9.677-2.036 18.116-4.072 26.58-2.037 8.45-4.072 16.928-4.072 26.578 0 9.677 2.035 18.127 4.072 26.578 2.036 8.45 4.072 16.93 4.072 26.58 0 9.677-2.036 18.114-4.072 26.578-2.037 8.45-4.072 16.928-4.072 26.578 0 9.677 2.035 18.114 4.072 26.578 2.036 8.45 4.072 16.903 4.072 26.58s-2.036 18.114-4.072 26.578c-2.037 8.45-4.072 16.901-4.072 26.578s2.035 18.116 4.072 26.58c.005.022.008.045.014.067 31.628-24.466 58.887-52.983 81.754-85.928-.618-7.203-2.174-13.841-3.768-20.455-2.037-8.465-4.072-16.901-4.072-26.578 0-9.65 2.035-18.127 4.072-26.578 2.036-8.465 4.072-16.901 4.072-26.578 0-9.65-2.036-18.13-4.072-26.58-2.037-8.451-4.072-16.901-4.072-26.578 0-9.65 2.035-18.127 4.072-26.578 2.036-8.465 4.072-16.903 4.072-26.58 0-9.65-2.036-18.127-4.072-26.578-2.037-8.465-4.072-16.901-4.072-26.578 0-9.678 2.035-18.127 4.072-26.578 2.036-8.465 4.072-16.903 4.072-26.58 0-9.678-2.036-18.127-4.072-26.578-2.037-8.465-4.072-16.901-4.072-26.578 0-1.313.119-2.556.19-3.829h-78z" fill="#fff" stroke-width="5.5" stroke="#000"/><path d="M2 3.34h596v230.65H2z" fill="#fcdb00"/><path d="M2 63.987h596M2 120.65h596M2 177.32h596M2 233.99h596" fill="none" stroke="#000" stroke-width="5.5"/><g fill="none" stroke="#000"><path d="M422 9.02v55.557M301.46 5.606v57.322m-178.09 116.09v55.557M422 121.015v55.557m-237.69-53.867v53.926M540.99 1.851v61.291m-56.99.624v57.557m-123.14 57.101v56.155M60 123.359v54.747m185.74-113.84v56.916m0 55.925v54.799m115.12-165.38v53.129m-59.4 1.818v55.557M484 178.543v56.196m56.99-112.9v55.292M123.37 65v55.557M60 6.368V64.09M184.42 5.96l-.103 59.079" stroke-width="5.5"/><path d="M594.5 242.25c0 272.9-100.51 424.54-294.49 498.66C107.03 666.508 5.51 515.15 5.51 242.25V5.69H594.5z" stroke-width="11"/></g></svg>
